archdroid-icon-theme/Archdroid-BrownDark/places/scalable/folder-collection-debian-debianred.svg

<?xml version="1.0" encoding="UTF-8" standalone="no"?>
<svg
   xmlns:dc="http://purl.org/dc/elements/1.1/"
   xmlns:cc="http://creativecommons.org/ns#"
   xmlns:rdf="http://www.w3.org/1999/02/22-rdf-syntax-ns#"
   xmlns:svg="http://www.w3.org/2000/svg"
   xmlns="http://www.w3.org/2000/svg"
   xmlns:sodipodi="http://sodipodi.sourceforge.net/DTD/sodipodi-0.dtd"
   xmlns:inkscape="http://www.inkscape.org/namespaces/inkscape"
   fill="#3E2723"
   width="48"
   height="48"
   viewBox="0 0 48 48"
   id="svg2"
   version="1.1"
   inkscape:version="0.91 r13725"
   sodipodi:docname="folder-collection.svg">
  <metadata
     id="metadata10">
    <rdf:RDF>
      <cc:Work
         rdf:about="">
        <dc:format>image/svg+xml</dc:format>
        <dc:type
           rdf:resource="http://purl.org/dc/dcmitype/StillImage" />
        <dc:title />
      </cc:Work>
    </rdf:RDF>
  </metadata>
  <defs
     id="defs8" />
  <sodipodi:namedview
     pagecolor="#ffffff"
     bordercolor="#666666"
     borderopacity="1"
     objecttolerance="10"
     gridtolerance="10"
     guidetolerance="10"
     inkscape:pageopacity="0"
     inkscape:pageshadow="2"
     inkscape:window-width="1366"
     inkscape:window-height="713"
     id="namedview6"
     showgrid="false"
     inkscape:zoom="6.17951838827563"
     inkscape:cx="20.23643933329335"
     inkscape:cy="9.887634207235635"
     inkscape:window-x="0"
     inkscape:window-y="30"
     inkscape:window-maximized="1"
     inkscape:current-layer="svg2"
     inkscape:snap-bbox="true"
     inkscape:bbox-nodes="true" />
  <path
     d="m 8,12 -4,0 0,28 c 0,2.21 1.79,4 4,4 l 28,0 0,-4 -28,0 0,-28 z"
     id="path4146"
     style="fill:#d70a53;fill-opacity:1" />
  <path
     style="fill:#d70a53;fill-opacity:1"
     d="M 16 4 C 13.79 4 12 5.789999999999999 12 8 L 12 32 C 12 34.21 13.79 36 16 36 L 40 36 C 42.21 36 44 34.21 44 32 L 44 8 C 44 5.79 42.21 4 40 4 L 16 4 z M 29.451171875 7 C 29.15586859370949 7.067124795514445 28.74955519807633 7.021681712392232 28.470703125 7.123046875 L 28.302734375 7.099609375 C 28.68102790573342 7.05071585434089 29.06553283881545 7.03236613339406 29.451171875 7 z M 27.767578125 7.177734375 C 27.56970857191007 7.288376050857716 27.37297401264114 7.375706200287714 27.1875 7.505859375 C 27.93914271159074 7.326547416347179 27.90545754271266 7.577149071870951 28.671875 7.4765625 C 28.40252005931455 7.516038914076111 28.07669214612893 7.623298857504141 28.12890625 7.6640625 C 28.98787129369201 7.763685917681008 29.11868198786936 7.399165209668469 29.9140625 7.6640625 L 29.865234375 7.427734375 C 30.96981475721434 7.826687139814735 31.19985957783022 7.759720871204794 32.400390625 8.396484375 C 32.82229809434951 8.416914062035969 32.86496007415943 8.137325760802165 33.501953125 8.396484375 C 33.61397208312979 8.593206192863192 33.47597526354488 8.628228592034359 34.2578125 9.09375 C 34.3450403772322 9.059088396152459 34.10251667400157 8.838171958781876 33.91015625 8.662109375 C 35.48232396358811 9.501792466882792 37.19181883206017 11.29376057725393 37.712890625 13.2109375 C 37.22510315363559 12.31157217632674 37.66170996810401 13.6700803179218 37.494140625 13.599609375 C 37.71152167694451 14.18610207586401 37.88981741823298 14.79222350438149 38 15.41796875 C 37.85561490847615 14.90401291546594 37.54011234701652 13.66474673394686 36.98828125 12.865234375 C 36.94329002911179 13.3812561329422 36.27851651107816 12.5089620166637 36.642578125 13.64453125 C 36.92010050282568 14.04669767344959 36.69899052743157 13.23831550078649 37.041015625 13.953125 C 37.04629520704302 14.29285462711498 37.1747085691259 14.62946937452381 37.25 15.072265625 C 37.13247191278186 15.05298367319076 36.9903770170055 14.58400193415167 36.904296875 14.71484375 C 37.0229726974449 15.27172488201412 37.2166423823073 15.5608198745653 37.291015625 15.603515625 C 37.25291081547226 15.69671172541127 37.155094364315 15.51773175017589 37.1484375 15.896484375 C 37.19388781497889 16.76853360027684 37.3926729304981 16.399858234792 37.486328125 16.44140625 C 37.39129564822597 16.87042967775532 37.00765976554259 17.375057952161 37.197265625 18.11328125 C 37.14286297525253 17.88970242783111 37.0358786849625 17.66499692285616 36.955078125 17.453125 C 36.88024578821655 18.08346118652547 37.0957531535012 18.20677055808203 36.8046875 18.970703125 C 37.01449349944805 18.28206198895616 36.99060875604458 17.65965502786627 36.79296875 17.958984375 C 36.88042617427758 18.93777297636364 36.0181320245887 19.68973491574193 36.111328125 20.30859375 L 35.861328125 19.962890625 C 35.18255751190611 20.94695880840665 35.84420206114938 20.50443119670986 35.3828125 21.25 C 35.55221821946682 20.95709797013601 35.29503028942062 21.13052360552778 35.515625 20.798828125 C 35.36917398506802 20.80732136567787 34.86212253160285 21.42189607562233 34.3984375 21.783203125 C 32.57468622471055 23.24518825682109 30.39676347038486 23.43578386554346 28.2890625 22.6484375 C 28.20711420481078 22.71569478428696 28.66670164038386 23.07450930871696 29.00390625 23.248046875 C 29.80640272053641 23.54485120463493 30.71510754783183 23.557647910215 31.4296875 23.53125 C 29.88483588480831 24.17719538560912 26.93548935659743 22.8738258912433 25.970703125 21.146484375 C 26.18900236512589 21.19400061338702 26.93645805344171 22.3611753905426 27.49609375 22.55078125 C 27.16531645765361 22.28565441262311 26.90899709784443 21.94863763256609 26.671875 21.6015625 C 27.11880309729246 22.11528878748872 27.6622507157302 22.53451852808364 28.255859375 22.8125 C 28.2368069702361 22.74030745423806 28.27847464253332 22.69735971403978 28.2890625 22.6484375 C 28.29965035746668 22.59951528596022 28.27926944027561 22.5440216797287 28.138671875 22.44921875 C 26.35118903287552 21.07997062449949 25.29552274357932 19.91684992124887 25.662109375 17.22265625 C 25.934581717828 17.01698209736823 26.00752634847219 15.89367318277174 26.6328125 15.5 C 27.01386059527761 14.65802143766373 28.15645148488495 13.8825632018092 29.376953125 13.86328125 C 30.62293448714866 13.79464668344098 31.67298412365437 14.52781339350268 32.201171875 15.21875 C 31.23959930203744 14.32259833496159 29.6666098711948 14.05030505371768 28.32421875 14.71484375 C 26.95152741881926 15.33278439607667 26.13718355255511 16.8444693986535 26.255859375 18.349609375 C 26.30681881906724 18.27454749117122 26.3523915911478 18.32046918468649 26.376953125 18.134765625 C 26.33494601570132 21.06011317091425 29.52806360561356 23.20490209972487 31.828125 22.123046875 L 31.85546875 22.18359375 C 32.78788884820336 21.92925562375447 32.66766679755585 21.71947506071466 33.27734375 21.30078125 C 33.22982751161297 21.39902738540893 32.86752151123688 21.649476387048 33.083984375 21.654296875 C 33.38078870463487 21.57556223844565 34.30629741202968 20.71351473799378 34.76171875 20.30859375 C 34.97060656126666 19.85799289998198 34.65160508036275 20.06456898291874 34.943359375 19.498046875 L 35.298828125 19.318359375 C 35.49649399736104 18.74666294694304 35.71484941398123 18.42387464381982 35.69140625 17.759765625 L 35.484375 18.1953125 C 35.79059075849415 17.26817198383963 35.6130951554746 16.25945661641289 35.65625 15.38671875 L 35.572265625 15.36328125 C 35.49743328821656 13.16766376124686 33.59939295671555 10.83433416395159 31.91015625 10.044921875 C 30.45436888840332 9.372349032130511 28.2132210965646 9.257061545917081 27.177734375 9.763671875 C 27.32028309016107 9.637421000058632 27.88780942378422 9.58365607222753 27.716796875 9.486328125 C 26.09550609370744 9.647470150834261 26.45761145351379 10.05167706128379 25.21484375 10.369140625 C 24.8739663876583 10.69831108802896 26.20917572102977 10.10647516769816 25.490234375 10.533203125 C 24.82362975530956 10.7170703083237 24.51313156113222 10.4172801320656 23.525390625 11.439453125 C 23.61330714336819 11.58177229311587 24.15280766183663 11.01906909639869 23.703125 11.583984375 C 22.77483674861291 11.46875175823532 20.7693302220751 13.70686360534473 20.34375 14.44921875 L 20.56640625 14.48828125 C 20.20096735380606 15.40371486684762 19.7216709079242 15.98676835866376 19.65625 16.53515625 C 19.56190616436198 17.88282695323781 19.0901610928037 20.34348140762386 19.744140625 21.099609375 L 19.681640625 21.73046875 C 19.77139351973103 21.90951544537139 19.8396120109609 22.09173718780529 19.951171875 22.259765625 L 19.8046875 22.271484375 C 20.49263999490779 24.44139259467414 20.54285421655817 22.31076023377384 21.451171875 24.564453125 C 21.31941187097028 24.52015054524784 21.18799507991089 24.47204923919783 20.99609375 24.212890625 C 20.97313904546521 24.41053063104458 21.27506540493977 25.00311184339715 21.634765625 25.466796875 L 21.482421875 25.640625 C 21.68258689854341 26.00422751983115 21.86698341256449 26.08399798392259 22.005859375 26.2109375 C 21.25845419534708 25.80303240041672 22.69797182528771 27.55594759987645 22.828125 27.779296875 L 22.943359375 27.57421875 C 22.92683198773494 27.86826851509073 23.15507374565282 28.24858015592646 23.58203125 28.775390625 L 23.9375 28.76171875 C 24.08395101493199 29.05117757418377 24.61855030583265 29.5730947161478 24.943359375 29.59765625 L 24.728515625 29.880859375 C 25.54386673007592 30.13909980101644 25.12475072501085 30.22347481493743 26.126953125 30.578125 L 25.923828125 30.220703125 C 26.43525894203524 30.66418801661223 26.5929867614714 31.05089537288504 27.314453125 31.390625 C 28.31481914862636 31.73930696188355 28.44784544115862 31.60094057899997 29.474609375 31.89453125 C 28.60439652608594 31.86928107501171 27.5805306199078 31.87888693261301 26.892578125 31.6328125 C 22.1990296887705 30.36112186877237 17.90472964196401 24.85627708327571 18.21875 19.185546875 C 18.14644268071539 18.03735255416958 18.33379081377484 16.6021923214582 18.142578125 16.31640625 C 18.41091862101175 15.44275019540572 18.72237009847218 14.37716333145672 19.34765625 13.109375 C 19.30243548206645 13.02444259322126 19.44965546719309 13.35813727702116 19.767578125 12.81640625 C 19.96039764309226 12.39289195133303 20.11823780397653 11.92720285230887 20.361328125 11.515625 L 20.486328125 11.486328125 C 20.61143126471464 10.76004127351909 22.18130926271693 9.644767806785035 22.6484375 9.083984375 L 22.6796875 9.298828125 C 23.69910592839024 8.342994228171142 25.51620086592954 7.702433276151721 26.5390625 7.24609375 C 26.27049245694291 7.543357173725587 27.14045559710941 7.21583918452776 27.767578125 7.177734375 z M 28.38671875 7.3203125 C 29.12195793624948 7.341201281126666 29.06891985057 7.39056355456997 28.828125 7.443359375 L 28.818359375 7.462890625 L 28.673828125 7.4765625 L 28.828125 7.443359375 C 28.86393433907428 7.39079310161532 28.60685436648869 7.35979459179985 28.38671875 7.3203125 z M 18.677734375 12.330078125 C 18.67360252818373 12.57661165170369 19.09172225440582 12.08627854417821 18.791015625 12.763671875 C 18.23000264616963 13.15596777549963 18.7420075476974 12.92506406654188 18.677734375 12.330078125 z M 18.220703125 14.220703125 C 18.1713505102502 14.45025017034795 18.1487662365309 14.68732708063874 18.01953125 15.083984375 C 18.05717696543707 14.77340722264423 17.8635279224386 14.67727219819707 18.220703125 14.220703125 z M 32.919921875 16.9765625 C 32.97093870582858 16.97527129786992 33.00732772942025 17.10320225562702 32.982421875 17.474609375 C 32.90804863230727 17.77370917508837 32.8483826351916 17.2899411858905 32.771484375 17.25 C 32.80442437600743 17.10825469949764 32.86890504417142 16.97785370213008 32.919921875 16.9765625 z M 37.431640625 18.228515625 C 37.32145804323297 19.07508512824324 37.05864202026588 19.90989555808202 36.65234375 20.673828125 C 37.02007811664743 19.94983674397257 37.25999298005159 19.17004211690624 37.37109375 18.380859375 L 37.431640625 18.228515625 z M 32.654296875 18.505859375 C 32.5911714375293 18.88966203482177 32.41163096352231 19.26056838902108 32.166015625 19.599609375 C 32.19608628794057 19.30808462740811 31.48142294720321 19.72711461815177 32.310546875 18.68359375 C 32.23846910276081 18.97764351509072 31.53949834967624 19.75111700091091 32.310546875 19.265625 C 32.45034102561689 19.01633690875213 32.5992055841165 18.77947945305475 32.654296875 18.505859375 z M 30.97265625 20.099609375 C 30.85237359823768 20.21392380358329 30.71710586038547 20.33306794505394 30.568359375 20.44921875 C 30.02984200661371 20.3663522666294 29.53867583450974 20.158082426134 29.951171875 20.15234375 C 30.29503334893123 20.18379169521261 30.63728801674665 20.1817872172346 30.97265625 20.099609375 z M 25.765625 20.154296875 C 25.86065747677404 20.34459137559344 25.94637684665753 20.53474236666457 26.08984375 20.693359375 L 26.216796875 21.068359375 C 26.04348885576231 20.77614598627205 25.8565256299578 20.48874692007196 25.765625 20.154296875 z M 25.44921875 20.71875 C 25.789637018251 21.37594319083117 25.97555083079748 21.57631935795305 26.224609375 22.0625 C 25.8784524306153 21.77464800513367 25.66367318555593 21.37600596073811 25.392578125 21.0078125 L 25.44921875 20.71875 z "
     id="path4195" />
</svg>

<svg xmlns="http://www.w3.org/2000/svg" fill="#3E2723" viewBox="0 0 48 48"><g fill="#d70a53"><path d="m8 12h-4v28c0 2.21 1.79 4 4 4h28v-4h-28v-28"/><path d="m16 4c-2.21 0-4 1.79-4 4v24c0 2.21 1.79 4 4 4h24c2.21 0 4-1.79 4-4v-24c0-2.21-1.79-4-4-4h-24m13.451 3c-.295.067-.702.022-.98.123l-.168-.023c.378-.049.763-.067 1.148-.1m-1.684.178c-.198.111-.395.198-.58.328.752-.179.718.071 1.484-.029-.269.039-.595.147-.543.188.859.1.99-.265 1.785 0l-.049-.236c1.105.399 1.335.332 2.535.969.422.02.465-.259 1.102 0 .112.197-.026.232.756.697.087-.035-.155-.256-.348-.432 1.572.84 3.282 2.632 3.803 4.549-.488-.899-.051.459-.219.389.217.586.396 1.193.506 1.818-.144-.514-.46-1.753-1.012-2.553-.045.516-.71-.356-.346.779.278.402.056-.406.398.309.005.34.134.676.209 1.119-.118-.019-.26-.488-.346-.357.119.557.312.846.387.889-.038.093-.136-.086-.143.293.045.872.244.503.338.545-.095.429-.479.934-.289 1.672-.054-.224-.161-.448-.242-.66-.075.63.141.754-.15 1.518.21-.689.186-1.311-.012-1.012.087.979-.775 1.731-.682 2.35l-.25-.346c-.679.984-.017.542-.479 1.287.169-.293-.088-.119.133-.451-.146.008-.654.623-1.117.984-1.824 1.462-4 1.653-6.109.865-.082.067.378.426.715.6.802.297 1.711.31 2.426.283-1.545.646-4.494-.657-5.459-2.385.218.048.966 1.215 1.525 1.404-.331-.265-.587-.602-.824-.949.447.514.99.933 1.584 1.211-.019-.072.023-.115.033-.164.011-.049-.01-.104-.15-.199-1.787-1.369-2.843-2.532-2.477-5.227.272-.206.345-1.329.971-1.723.381-.842 1.524-1.617 2.744-1.637 1.246-.069 2.296.665 2.824 1.355-.962-.896-2.535-1.168-3.877-.504-1.373.618-2.187 2.13-2.068 3.635.051-.075.097-.029.121-.215-.042 2.925 3.151 5.07 5.451 3.988l.027.061c.932-.254.812-.464 1.422-.883-.048.098-.41.349-.193.354.297-.079 1.222-.941 1.678-1.346.209-.451-.11-.244.182-.811l.355-.18c.198-.572.416-.894.393-1.559l-.207.436c.306-.927.129-1.936.172-2.809l-.084-.023c-.075-2.196-1.973-4.529-3.662-5.318-1.456-.673-3.697-.788-4.732-.281.143-.126.71-.18.539-.277-1.621.161-1.259.565-2.502.883-.341.329.994-.263.275.164-.667.184-.977-.116-1.965.906.088.142.627-.42.178.145-.928-.115-2.934 2.123-3.359 2.865l.223.039c-.365.915-.845 1.498-.91 2.047-.094 1.348-.566 3.808.088 4.564l-.063.631c.09.179.158.361.27.529l-.146.012c.688 2.17.738.039 1.646 2.293-.132-.044-.263-.092-.455-.352-.023.198.279.79.639 1.254l-.152.174c.2.364.385.443.523.57-.747-.408.692 1.345.822 1.568l.115-.205c-.017.294.212.674.639 1.201l.355-.014c.146.289.681.811 1.01.836l-.215.283c.815.258.396.343 1.398.697l-.203-.357c.511.443.669.83 1.391 1.17 1 .349 1.133.21 2.16.504-.87-.025-1.894-.016-2.582-.262-4.694-1.272-8.988-6.777-8.674-12.447-.072-1.148.115-2.583-.076-2.869.268-.874.58-1.939 1.205-3.207-.045-.085.102.249.42-.293.193-.424.351-.889.594-1.301l.125-.029c.125-.726 1.695-1.842 2.162-2.402l.031.215c1.019-.956 2.837-1.596 3.859-2.053-.269.297.601-.03 1.229-.068m.619.143c.735.021.682.07.441.123l-.01.02-.145.014.154-.033c.036-.053-.221-.084-.441-.123m-9.709 5.01c-.004.247.414-.244.113.434-.561.392-.049.161-.113-.434m-.457 1.891c-.049.23-.072.467-.201.863.038-.311-.156-.407.201-.863m14.699 2.756c.051-.001.087.127.063.498-.074.299-.134-.185-.211-.225.033-.142.097-.272.148-.273m4.512 1.252c-.11.847-.373 1.681-.779 2.445.368-.724.608-1.504.719-2.293l.061-.152m-4.777.277c-.063.384-.243.755-.488 1.094.03-.292-.685.128.145-.916-.072.294-.771 1.068 0 .582.14-.249.289-.486.344-.76m-1.682 1.594c-.12.114-.256.233-.404.35-.539-.083-1.03-.291-.617-.297.344.031.686.029 1.021-.053m-5.207.055c.095.19.181.38.324.539l.127.375c-.173-.292-.36-.58-.451-.914m-.316.564c.34.657.526.858.775 1.344-.346-.288-.561-.686-.832-1.055l.057-.289"/></g></svg>
